Newaita-dark/.DP/24/youtube-indicator-downloading-light.svg

<svg xmlns="http://www.w3.org/2000/svg" xmlns:xlink="http://www.w3.org/1999/xlink" width="24px" height="24px" viewBox="0 0 24 24" version="1.1">
<g id="surface1">
<path style=" stroke:none;fill-rule:nonzero;fill:rgb(93.333334%,93.333334%,93.333334%);fill-opacity:1;" d="M 11.878906 4.363281 C 11.878906 4.363281 5.382812 4.363281 3.757812 4.789062 C 2.882812 5.03125 2.167969 5.75 1.929688 6.636719 C 1.5 8.261719 1.5 11.632812 1.5 11.632812 C 1.5 11.632812 1.5 15.015625 1.929688 16.625 C 2.167969 17.511719 2.867188 18.210938 3.757812 18.453125 C 4.582031 18.675781 6.628906 18.789062 8.460938 18.84375 L 7.320312 17.539062 C 6.921875 17.085938 6.863281 16.433594 7.085938 15.945312 C 7.304688 15.460938 7.835938 15.078125 8.433594 15.078125 L 9.929688 15.078125 L 9.929688 8.125 L 9.929688 8.140625 C 9.914062 7.0625 10.796875 6.152344 11.875 6.136719 C 12.976562 6.121094 13.898438 7.039062 13.882812 8.140625 L 13.882812 8.125 L 13.882812 15.078125 L 15.382812 15.078125 C 15.980469 15.078125 16.507812 15.460938 16.730469 15.945312 C 16.953125 16.433594 16.890625 17.085938 16.496094 17.539062 L 15.351562 18.84375 C 17.175781 18.789062 19.191406 18.679688 20 18.46875 C 20.890625 18.230469 21.59375 17.53125 21.828125 16.640625 C 22.257812 15.015625 22.257812 11.648438 22.257812 11.648438 C 22.257812 11.648438 22.273438 8.261719 21.828125 6.636719 C 21.59375 5.75 20.890625 5.046875 20 4.808594 C 18.375 4.363281 11.878906 4.363281 11.878906 4.363281 Z M 11.90625 8.109375 C 11.90625 8.117188 11.90625 8.121094 11.90625 8.125 C 11.90625 8.121094 11.90625 8.117188 11.90625 8.109375 Z M 11.90625 16.0625 C 11.90625 16.609375 11.464844 17.054688 10.921875 17.054688 L 9.519531 17.054688 L 11.128906 18.890625 C 11.585938 18.898438 11.878906 18.898438 11.878906 18.898438 C 11.878906 18.898438 12.195312 18.898438 12.6875 18.890625 L 14.296875 17.054688 L 12.894531 17.054688 C 12.351562 17.054688 11.90625 16.609375 11.90625 16.0625 Z M 11.90625 16.0625 "/>
<path style=" stroke:none;fill-rule:nonzero;fill:rgb(93.333334%,93.333334%,93.333334%);fill-opacity:1;" d="M 11.890625 7.125 C 11.347656 7.132812 10.914062 7.578125 10.921875 8.125 L 10.921875 16.0625 L 8.433594 16.0625 C 8.007812 16.0625 7.78125 16.566406 8.0625 16.886719 L 11.535156 20.855469 C 11.734375 21.078125 12.082031 21.078125 12.28125 20.855469 L 15.753906 16.886719 C 16.03125 16.566406 15.804688 16.0625 15.382812 16.0625 L 12.894531 16.0625 L 12.894531 8.125 C 12.898438 7.859375 12.796875 7.601562 12.605469 7.414062 C 12.414062 7.226562 12.160156 7.121094 11.890625 7.125 Z M 11.890625 7.125 "/>
</g>
</svg>

<svg xmlns="http://www.w3.org/2000/svg" width="24" height="24"><g fill="#bdbdbd"><path d="M11.879 4.363s-6.496 0-8.121.426c-.871.242-1.59.961-1.832 1.848C1.5 8.262 1.5 11.629 1.5 11.629s0 3.387.426 4.992c.242.89.941 1.594 1.832 1.832.824.223 2.87.332 4.703.39l-1.14-1.308h-.005a1.514 1.514 0 0 1-.234-1.586c.223-.488.75-.87 1.352-.87h1.5V8.124v.016a1.991 1.991 0 0 1 1.945-2.004 1.993 1.993 0 0 1 2.004 2.004v-.016 6.953h1.496a1.51 1.51 0 0 1 1.351.871c.22.485.16 1.137-.234 1.586l-1.14 1.309c1.82-.055 3.835-.16 4.644-.375a2.607 2.607 0 0 0 1.832-1.828c.426-1.625.426-4.993.426-4.993s.015-3.386-.426-5.011A2.607 2.607 0 0 0 20 4.809c-1.625-.446-8.121-.446-8.121-.446zm.027 3.75v0zm0 7.953a.986.986 0 0 1-.988.985H9.52l1.609 1.844c.46.003.75.003.75.003s.316 0 .809-.007l1.609-1.84h-1.402a.986.986 0 0 1-.989-.985zm0 0"/><path d="M11.89 7.125a.989.989 0 0 0-.972 1v7.941H8.434c-.426 0-.653.5-.371.82l3.472 3.97a.494.494 0 0 0 .746 0l3.473-3.97a.495.495 0 0 0-.375-.82h-2.484V8.125a.988.988 0 0 0-1.004-1zm0 0"/></g></svg>
